!!!COM: Hensel, Fanny
!!!CDT: 1805/11/14-1847/05/14
!!!LYR: Lenau, Nikolaus
!!!OTL: Schilflied
**kern	**text	**kern	**text	**kern	**text	**kern	**text
*part4	*part4	*part3	*part3	*part2	*part2	*part1	*part1
*staff4	*staff4	*staff3	*staff3	*staff2	*staff2	*staff1	*staff1
*I"Baß	*	*I"Tenor	*	*I"Alt	*	*I"Sopran	*
*clefF4	*	*clefGv2	*	*clefG2	*	*clefG2	*
*k[b-]	*	*k[b-]	*	*k[b-]	*	*k[b-]	*
*d:	*	*d:	*	*d:	*	*d:	*
*M2/4	*	*M2/4	*	*M2/4	*	*M2/4	*
*MM80	*	*MM80	*	*MM80	*	*MM80	*
=1	=1	=1	=1	=1	=1	=1	=1
!	!	!	!	!	!	!LO:TX:a:B:t=Largo	!
4D	Drü-	4d	Drü-	4f	Drü-	4.a	Drü-
4D	-ben	4c	-ben	4e	-ben	.	.
.	.	.	.	.	.	8a	-ben
=2	=2	=2	=2	=2	=2	=2	=2
8D	geht	8B-	geht	8d	geht	8g	geht
8D	die	8A	die	8d	die	8f	die
8G	Son-	8B-	Son-	8c#X	Son-	8e	Son-
8F	-ne	8A	-ne	8d	-ne	8d	-ne
=3	=3	=3	=3	=3	=3	=3	=3
4AA	schei-	4G#X	schei-	4f	schei-	4dd	schei-
4AA;	-den,	4A;	-den,	4e;	-den,	4cc#X;	-den,
=4	=4	=4	=4	=4	=4	=4	=4
2r;	.	2r;	.	2r;	.	2r;	.
=5	=5	=5	=5	=5	=5	=5	=5
4.A	und	4.c#X	und	4.e	und	4.a	und
8A	der	8c#	der	8e	der	8a	der
=6	=6	=6	=6	=6	=6	=6	=6
4G	mü-	4c#X	mü-	4e	mü-	4.b-	mü-
*F:	*	*F:	*	*F:	*	*F:	*
4F	-de	4d	-de	4f	-de	.	.
.	.	.	.	.	.	8b-	-de
=7	=7	=7	=7	=7	=7	=7	=7
4E	Tag	4B-	Tag	4g	Tag	4.dd	Tag
4C	ent-	4cni	ent-	4e	ent-	.	.
.	.	.	.	.	.	8b-	ent-
=8	=8	=8	=8	=8	=8	=8	=8
2F	-schlief,	2c	-schlief,	4e	-schlief,	4b-	-schlief,
.	.	.	.	4f	.	4a	.
=9	=9	=9	=9	=9	=9	=9	=9
4r	.	4r	.	4r	.	4.ff	nie-
*d:	*	*d:	*	*d:	*	*d:	*
8A	nie-	8d	nie-	8f	nie-	.	.
8A	-der-	8d	-der-	8f	-der-	8ee	-der-
=10	=10	=10	=10	=10	=10	=10	=10
4A	-han-	4e	-han-	4g	-han-	4dd	-han-
4A	-gen	4e	-gen	4g	-gen	4cc#X	-gen
=11	=11	=11	=11	=11	=11	=11	=11
4r	.	4r	.	4r	.	4.dd	dort
8B-	dort	8d	dort	8f	dort	.	.
8A-X	die	8d	die	8f	die	8ccn	die
=12	=12	=12	=12	=12	=12	=12	=12
4G	Wei-	4d	Wei-	4f	Wei-	8ccL	Wei-
.	.	.	.	.	.	8bnJ	.
4C	-den	4c	-den	4e	-den	4b-X	-den
=13	=13	=13	=13	=13	=13	=13	=13
4F	in	4c	in	4f	in	4a	in
4F	den	4e-X	den	4a	den	4a	den
=14	=14	=14	=14	=14	=14	=14	=14
[2BB-	Teich	[2d	Teich	8aL	Teich	[2dd	Teich
.	.	.	.	8ccJ	.	.	.
.	.	.	.	8b-L	so	.	.
.	.	.	.	8f#XJ	.	.	.
=15	=15	=15	=15	=15	=15	=15	=15
4BB-]	.	4d]	.	[2g	still,	8dd]	.
.	.	.	.	.	.	8dd	so
4B-	so	4d	so	.	.	8ee	still,
.	.	.	.	.	.	8dd	so
=16	=16	=16	=16	=16	=16	=16	=16
[2A	still,	[2d	still,	8g]	.	2dd	tief,
.	.	.	.	8b-	so	.	.
.	.	.	.	8a	still,	.	.
.	.	.	.	8e	so	.	.
=17	=17	=17	=17	=17	=17	=17	=17
4A]	.	4d]	.	4f	tief,	4r	.
8.A	in	8.d	in	8.f	in	8.dd	in
16A	den	16d	den	16f	den	16dd	den
=18	=18	=18	=18	=18	=18	=18	=18
*F:	*	*F:	*	*F:	*	*F:	*
4.G	Teich	4.d	Teich	4.f	Teich	4.ff	Teich
8G	so	8B-	so	8f	so	8dd	so
=19	=19	=19	=19	=19	=19	=19	=19
4.C	still,	4.B-	still,	4.e	still,	4.dd	still,
8C	so	8G	so	8e	so	8b-	so
=20	=20	=20	=20	=20	=20	=20	=20
2FF	tief,	4G	tief,	4e	tief,	4b-	tief,
.	.	4F	.	4f	.	4a	.
=21	=21	=21	=21	=21	=21	=21	=21
4r	.	4r	.	4r	.	4.cc	und
*B-:	*	*B-:	*	*B-:	*	*B-:	*
8A	und	8c	und	8e-X	und	.	.
8A	ich	8c	ich	8e-	ich	8f	ich
=22	=22	=22	=22	=22	=22	=22	=22
4B-	muß	4c	muß	4e-X	muß	4g-X	muß
4A	mein	4c	mein	4e-	mein	4f	mein
=23	=23	=23	=23	=23	=23	=23	=23
4r	.	4r	.	4r	.	8ee-XL	Lieb-
.	.	.	.	.	.	8ccJ	.
8AA 8A	Lieb-	8c	Lieb-	8e-X	Lieb-	8aL	-stes
8AA 8A	-stes	8c	-stes	8e-	-stes	8fJ	.
=24	=24	=24	=24	=24	=24	=24	=24
4BB- 4B-	mei-	4c	mei-	4e-X	mei-	8a-XL	mei-
.	.	.	.	.	.	8g-XJ	.
4AA 4A	-den,	4c	-den,	4e-	-den,	4f	-den,
=25	=25	=25	=25	=25	=25	=25	=25
4GG 4G	quill,	4B-	quill,	4e-X	quill,	4f	quill,
4FF 4F	o	4A	o	4e-	o	4f	o
=26	=26	=26	=26	=26	=26	=26	=26
4.BB-	Trä-	4.B-	Trä-	4.d-X	Trä-	4.ff	Trä-
8BB-	-ne,	8B-	-ne,	8f	-ne,	8dd-X	-ne,
=27	=27	=27	=27	=27	=27	=27	=27
4BB-	quill	4A-X	quill	4f	quill	4cc	quill
4BB-	her-	4G-X	her-	4en	her-	8dd-XL	her-
.	.	.	.	.	.	8b-J	.
=28	=28	=28	=28	=28	=28	=28	=28
4FF 4F	-vor,	4F	-vor,	4f	-vor,	4a	-vor,
4r	.	8.f	trau-	4r	.	4r	.
.	.	16f	-rig	.	.	.	.
=29	=29	=29	=29	=29	=29	=29	=29
2r	.	4f	säu-	4r	.	2r	.
.	.	4f	-seln	8.a-X	trau-	.	.
.	.	.	.	16a-	-rig	.	.
=30	=30	=30	=30	=30	=30	=30	=30
4r	.	4f	hier,	4a-X	säu-	4r	.
*c:	*	*c:	*	*c:	*	*c:	*
8.G	trau-	8.f	trau-	4a-	-seln,	8.bn	trau-
16G	-rig	16f	-rig	.	.	16b	-rig
=31	=31	=31	=31	=31	=31	=31	=31
8.G	säu-	8.f	säu-	8.a-i	säu-	8.bn	säu-
16G	-seln	16f	-seln	16a-i	-seln	16b	-seln
8.G	hier	8.e-X	hier	8.g	hier	8.cc	hier
16G	die	16Bn	die	16f	die	16dd	die
=32	=32	=32	=32	=32	=32	=32	=32
4G	Wei-	8.Bn	Wei-	4f	Wei-	4dd	Wei-
.	.	16B	-den,	.	.	.	.
4C	-den,	8.c	tau-	4e-X	-den,	4ee-X	-den,
.	.	16e-X	-rig	.	.	.	.
=33	=33	=33	=33	=33	=33	=33	=33
2r	.	4e-X	säu-	4r	.	2r	.
.	.	4e-	-seln	8.g	tau-	.	.
.	.	.	.	16g	-rig	.	.
=34	=34	=34	=34	=34	=34	=34	=34
4r	.	4e-X	hier,	4g	säu-	4r	.
*d:	*	*d:	*	*d:	*	*d:	*
8.A	trau-	8.g	trau-	4b-	-seln,	8.cc#X	trau-
16A	-rig	16g	-rig	.	.	16cc#	-rig
=35	=35	=35	=35	=35	=35	=35	=35
8.A	säu-	8.g	säu-	8.b-	säu-	8.cc#X	säu-
16A	-seln	16g	-seln	16b-	-seln	16cc#	-seln
8.A	hier	8.f	hier	8.a	hier	8.dd	hier
16A	die	16c#X	die	16g	die	16eeni	die
=36	=36	=36	=36	=36	=36	=36	=36
4A	Wei-	4c#X	Wei-	4g	Wei-	4ee	Wei-
4D	-den,	4d	-den,	4f	-den,	4ff	-den,
=37	=37	=37	=37	=37	=37	=37	=37
2C 2c	im	4r	.	4r	.	4r	.
.	.	8.f	und	8.a	und	8.ff	und
.	.	16f	im	16a	im	16ee	im
=38	=38	=38	=38	=38	=38	=38	=38
2BB- 2B-	Win-	4f	Win-	4b-	Win-	4ee	Win-
.	.	4f	-de	4b-	-de	4dd	-de
=39	=39	=39	=39	=39	=39	=39	=39
2AA 2A	-de	4r	.	4r	.	4r	.
.	.	8.d	bebt	8.f	bebt	8.dd	bebt
.	.	16d	das	16f	das	16cc	das
=40	=40	=40	=40	=40	=40	=40	=40
2GG 2G	bebt	2d	Rohr	2f	Rohr	4cc	Rohr
.	.	.	.	.	.	4b-	.
=41	=41	=41	=41	=41	=41	=41	=41
2AA 2A	das	4r	.	4r	.	4r	.
.	.	8.d	und	8.f	und	8.b-	und
.	.	16d	im	16f	im	16a	im
=42	=42	=42	=42	=42	=42	=42	=42
2BB- 2B-	Rohr,	4.d	Win-	4.e	Win-	4.g	Win-
.	.	8d	-de	8e	-de	8g	-de
=43	=43	=43	=43	=43	=43	=43	=43
4BB-	bebt	4c#X	bebt	4g	bebt	4ee	bebt
4BB-	das	4d	das	4g	das	4dd	das
=44	=44	=44	=44	=44	=44	=44	=44
2AA	Rohr.	2e	Rohr.	2g	Rohr.	2dd	Rohr.
=45	=45	=45	=45	=45	=45	=45	=45
2r	.	2r	.	2r	.	4cc#X	.
.	.	.	.	.	.	4r	.
=46	=46	=46	=46	=46	=46	=46	=46
[2D	In	4d	In	4f	In	4.a	In
.	.	4c	mein	4e	mein	.	.
.	.	.	.	.	.	8a	mein
=47	=47	=47	=47	=47	=47	=47	=47
8D]	.	8B-	stil-	8d	stil-	8g	stil-
8D	mein	8A	-les,	8d	-les,	8f	-les,
8G	tie-	8B-	tie-	8c#X	tie-	8e	tie-
8F	-fes	8A	-fes	8d	-fes	8d	-fes
=48	=48	=48	=48	=48	=48	=48	=48
4AA	Lei-	4G#X	Lei-	4f	Lei-	4dd	Lei-
4AA;	-den	4A;	-den	4e;	-den	4cc#X;	-den
=49	=49	=49	=49	=49	=49	=49	=49
2r;	.	2r;	.	2r;	.	2r;	.
=50	=50	=50	=50	=50	=50	=50	=50
4.A	strahlst	4.c#X	strahlst	4.e	strahlst	4.a	strahlst
8A	du,	8c#	du,	8e	du,	8a	du,
=51	=51	=51	=51	=51	=51	=51	=51
4G	Fer-	4c#X	Fer-	4e	Fer-	4.b-	Fer-
*F:	*	*F:	*	*F:	*	*F:	*
4F	-ne,	4d	-ne,	4f	-ne,	.	.
.	.	.	.	.	.	8b-	-ne,
=52	=52	=52	=52	=52	=52	=52	=52
4E	hell	4B-	hell	4g	hell	4.dd	hell
4C	und	4cn	und	4e	und	.	.
.	.	.	.	.	.	8b-	und
=53	=53	=53	=53	=53	=53	=53	=53
2F	mild,	2c	mild,	4e	mild,	4b-	mild,
.	.	.	.	4f	.	4a	.
=54	=54	=54	=54	=54	=54	=54	=54
4r	.	4r	.	4r	.	4.ff	wie
*d:	*	*d:	*	*d:	*	*d:	*
8A	wie	8d	wie	8f	wie	.	.
8A	durch	8d	durch	8f	durch	8ee	durch
=55	=55	=55	=55	=55	=55	=55	=55
4A	Bin-	4e	Bin-	4g	Bin-	4dd	Bin-
4A	-sen	4e	-sen	4g	-sen	4cc#X	-sen
=56	=56	=56	=56	=56	=56	=56	=56
4r	.	4r	.	4r	.	4.dd	hier
8B-	hier	8d	hier	8f	hier	.	.
8A-X	und	8d	und	8f	und	8ccni	und
=57	=57	=57	=57	=57	=57	=57	=57
4G	Wei-	4d	Wei-	4f	Wei-	8ccL	Wei-
.	.	.	.	.	.	8bnJ	.
4C	-den	4c	-den	4e	-den	4b-X	-den
=58	=58	=58	=58	=58	=58	=58	=58
4F	strahlt	4c	strahlt	4f	strahlt	4a	strahlt
4F	des	4c	des	4e-X	des	4a	des
=59	=59	=59	=59	=59	=59	=59	=59
[2BB-	A-	[2d	A-	8aL	A-	[2dd	A-
.	.	.	.	8ccJ	.	.	.
.	.	.	.	8b-L	-bend-	.	.
.	.	.	.	8f#XJ	.	.	.
=60	=60	=60	=60	=60	=60	=60	=60
4BB-]	.	4d]	.	[2g	-ster-	8dd]	.
.	.	.	.	.	.	8dd	-bend-
4B-	-bend-	4d	-bend-	.	.	8ee	-ster-
.	.	.	.	.	.	8dd	-nes
=61	=61	=61	=61	=61	=61	=61	=61
[2A	-ster-	[2d	-ster-	8gL]	.	2dd	Bild,
.	.	.	.	8b-J	.	.	.
.	.	.	.	8aL	-nes	.	.
.	.	.	.	8eJ	.	.	.
=62	=62	=62	=62	=62	=62	=62	=62
4A]	.	4d]	.	4f	Bild,	4r	.
8G#X	-nes	8d	-nes	8f	straht	8dd	straht
8G#	des	8d	des	8f	des	8dd	des
=63	=63	=63	=63	=63	=63	=63	=63
2D	A-	[2d	A-	[2f	A-	(4ff	A-
.	.	.	.	.	.	8eeL	.
.	.	.	.	.	.	8ddJ	.
=64	=64	=64	=64	=64	=64	=64	=64
2BB-	-bend-	2d_	.	2f_	.	8cc#XL	.
.	.	.	.	.	.	8ddJ)	.
.	.	.	.	.	.	8fL	-bend-
.	.	.	.	.	.	8gJ	.
=65	=65	=65	=65	=65	=65	=65	=65
[2AA	-ster-	4d]	.	4f]	.	[2a	-ster-
.	.	4d	-bend-	4f	-bend-	.	.
=66	=66	=66	=66	=66	=66	=66	=66
4AA]	.	4d	-ster-	4e	-ster-	4a]	.
4AA	-nes	4c#X	-nes	4e	-nes	4e	-nes
=67	=67	=67	=67	=67	=67	=67	=67
[2D	Bild.	[2A	Bild.	(2c#X	Bild.	(2g	Bild.
=68	=68	=68	=68	=68	=68	=68	=68
2D]	.	2A]	.	2d)	.	2f#X)	.
==	==	==	==	==	==	==	==
*-	*-	*-	*-	*-	*-	*-	*-
!!!system-decoration: ([s1,s2,s3,s4])
!!!RDF**kern: i = editorial accidental paren
!!!EED: Imke Redecker